X:1
T:Korobushka
C:Traditional - Arrangement by Daniel Beerbohm
M:2/4
K:Am
T:A
"E7"B2BB B2c2|ddd2 c2B2|"Am"A4c4|eeee d2c2| "E"z2B4c2|d4e4|"Am"c4A4|A8:|
T:B
"Dm"d2dd d2f2|a4g2f2|"Am"a2e2 e2f2|e4d2c2|"E"B6c2|"E7"d4e4|"Am"c4A4|A2B2 c2^c2|
"Dm"d2dd d2f2|a2a2 g2f2|"Am"z2e4f2|e4d2c2|"E7"B2E2 ^G2B2|"E"e2d2 c2B2|"Am"c4A4|A8|]
